Origami/48x48/apps/asc-de.svg

<svg width="48" height="48" version="1.1" viewBox="0 0 48 48" xmlns="http://www.w3.org/2000/svg">
 <path d="m24.000881 25c-1.26026-2.01e-4 -2.520584 0.246147-3.453201 0.736996l-14.149619 7.445903c-1.8652367 0.981697-1.863504 2.653229 0.00173 3.634927l14.147882 7.445902c1.865235 0.981696 5.041171 0.981695 6.906403 0l14.147885-7.445902c1.865231-0.981695 1.863475-2.653233-0.0018-3.634927l-14.146079-7.445903c-0.932617-0.490849-2.19294-0.736795-3.453201-0.736996z" style="opacity:.2"/>
 <path d="m24.000881 24c-1.26026-2.01e-4 -2.520584 0.246147-3.453201 0.736996l-14.149619 7.445903c-1.8652367 0.981697-1.863504 2.653229 0.00173 3.634927l14.147882 7.445902c1.865235 0.981696 5.041171 0.981695 6.906403 0l14.147885-7.445902c1.865231-0.981695 1.863475-2.653233-0.0018-3.634927l-14.146079-7.445903c-0.932617-0.490849-2.19294-0.736795-3.453201-0.736996z" style="fill:#ea6e41"/>
 <path d="m24 24c-1.26026-2.01e-4 -2.520508 0.245479-3.453125 0.736328l-14.148438 7.447266c-1.1676386 0.614542-1.6033465 1.499656-1.3085937 2.316406 0.1758549-0.487398 0.6117282-0.949637 1.3085937-1.316406l14.148438-7.447266c0.932617-0.490849 2.192865-0.736529 3.453125-0.736328 1.260261 2.01e-4 2.520508 0.245479 3.453125 0.736328l14.146484 7.447266c0.69688 0.366768 1.134076 0.829007 1.310547 1.316406 0.293726-0.81675-0.142884-1.701866-1.310547-2.316406l-14.146484-7.447266c-0.932617-0.490849-2.192864-0.736127-3.453125-0.736328z" style="fill:#ffffff;opacity:.2"/>
 <path d="m24.000881 15c-1.26026-2.01e-4 -2.520584 0.246147-3.453201 0.736996l-14.149619 7.445903c-1.8652367 0.981697-1.863504 2.653229 0.00173 3.634927l14.147882 7.445902c1.865235 0.981696 5.041171 0.981695 6.906403 0l14.147885-7.445902c1.865231-0.981695 1.863475-2.653233-0.0018-3.634927l-14.146079-7.445903c-0.932617-0.490849-2.19294-0.736795-3.453201-0.736996z" style="opacity:.2"/>
 <path d="m24.000881 14c-1.26026-2.01e-4 -2.520584 0.246147-3.453201 0.736996l-14.149619 7.445903c-1.8652367 0.981697-1.863504 2.653229 0.00173 3.634927l14.147882 7.445902c1.865235 0.981696 5.041171 0.981695 6.906403 0l14.147885-7.445902c1.865231-0.981695 1.863475-2.653233-0.0018-3.634927l-14.146079-7.445903c-0.932617-0.490849-2.19294-0.736795-3.453201-0.736996z" style="fill:#aed351"/>
 <path d="m24 14c-1.26026-2.01e-4 -2.520508 0.245479-3.453125 0.736328l-14.148438 7.447266c-1.1676386 0.614542-1.6033465 1.499656-1.3085937 2.316406 0.1758549-0.487398 0.6117282-0.949637 1.3085937-1.316406l14.148438-7.447266c0.932617-0.490849 2.192865-0.736529 3.453125-0.736328 1.260261 2.01e-4 2.520508 0.245479 3.453125 0.736328l14.146484 7.447266c0.69688 0.366768 1.134076 0.829007 1.310547 1.316406 0.293726-0.81675-0.142884-1.701866-1.310547-2.316406l-14.146484-7.447266c-0.932617-0.490849-2.192864-0.736127-3.453125-0.736328z" style="fill:#ffffff;opacity:.2"/>
 <path d="m24.000881 5.0000008c-1.26026-2.01e-4 -2.520584 0.246147-3.453201 0.736996l-14.149619 7.4459022c-1.8652367 0.981697-1.863504 2.653229 0.00173 3.634927l14.147882 7.445902c1.865235 0.981696 5.041171 0.981695 6.906403 0l14.147885-7.445902c1.865231-0.981695 1.863475-2.653233-0.0018-3.634927l-14.146079-7.4459022c-0.932617-0.490849-2.19294-0.736795-3.453201-0.736996z" style="opacity:.2"/>
 <path d="m24.000881 4.0000004c-1.26026-2.01e-4 -2.520584 0.246147-3.453201 0.736996l-14.149619 7.4459026c-1.8652367 0.981697-1.863504 2.653229 0.00173 3.634927l14.147882 7.445902c1.865235 0.981696 5.041171 0.981695 6.906403 0l14.147885-7.445902c1.865231-0.981695 1.863475-2.653233-0.0018-3.634927l-14.146079-7.4459026c-0.932617-0.490849-2.19294-0.736795-3.453201-0.736996z" style="fill:#3b9dda"/>
 <path d="m24 4c-1.26026-2.01e-4 -2.520508 0.2454791-3.453125 0.7363281l-14.148438 7.4472659c-1.1676386 0.614542-1.6033465 1.499656-1.3085937 2.316406 0.1758549-0.487398 0.6117282-0.949637 1.3085937-1.316406l14.148438-7.4472659c0.932617-0.490849 2.192865-0.7365291 3.453125-0.7363281 1.260261 2.01e-4 2.520508 0.2454791 3.453125 0.7363281l14.146484 7.4472659c0.69688 0.366768 1.134076 0.829007 1.310547 1.316406 0.293726-0.81675-0.142884-1.701866-1.310547-2.316406l-14.146484-7.4472659c-0.932617-0.490849-2.192864-0.7361271-3.453125-0.7363281z" style="fill:#ffffff;opacity:.2"/>
</svg>

<svg xmlns="http://www.w3.org/2000/svg" width="48" height="48" version="1.1" viewBox="0 0 48 48">
 <path style="opacity:0.2" d="m 24.000881,25 c -1.26026,-2.01e-4 -2.520584,0.246147 -3.453201,0.736996 L 6.398061,33.182899 c -1.8652367,0.981697 -1.863504,2.653229 0.00173,3.634927 l 14.147882,7.445902 c 1.865235,0.981696 5.041171,0.981695 6.906403,0 l 14.147885,-7.445902 c 1.865231,-0.981695 1.863475,-2.653233 -0.0018,-3.634927 L 27.454082,25.736996 C 26.521465,25.246147 25.261142,25.000201 24.000881,25 Z"/>
 <path style="fill:#ea6e41" d="m 24.000881,24 c -1.26026,-2.01e-4 -2.520584,0.246147 -3.453201,0.736996 L 6.398061,32.182899 c -1.8652367,0.981697 -1.863504,2.653229 0.00173,3.634927 l 14.147882,7.445902 c 1.865235,0.981696 5.041171,0.981695 6.906403,0 l 14.147885,-7.445902 c 1.865231,-0.981695 1.863475,-2.653233 -0.0018,-3.634927 L 27.454082,24.736996 C 26.521465,24.246147 25.261142,24.000201 24.000881,24 Z"/>
 <path style="opacity:0.2;fill:#ffffff" d="M 24 24 C 22.73974 23.999799 21.479492 24.245479 20.546875 24.736328 L 6.3984375 32.183594 C 5.2307989 32.798136 4.795091 33.68325 5.0898438 34.5 C 5.2656987 34.012602 5.701572 33.550363 6.3984375 33.183594 L 20.546875 25.736328 C 21.479492 25.245479 22.73974 24.999799 24 25 C 25.260261 25.000201 26.520508 25.245479 27.453125 25.736328 L 41.599609 33.183594 C 42.296489 33.550362 42.733685 34.012601 42.910156 34.5 C 43.203882 33.68325 42.767272 32.798134 41.599609 32.183594 L 27.453125 24.736328 C 26.520508 24.245479 25.260261 24.000201 24 24 z"/>
 <path style="opacity:0.2" d="m 24.000881,15 c -1.26026,-2.01e-4 -2.520584,0.246147 -3.453201,0.736996 L 6.398061,23.182899 c -1.8652367,0.981697 -1.863504,2.653229 0.00173,3.634927 l 14.147882,7.445902 c 1.865235,0.981696 5.041171,0.981695 6.906403,0 l 14.147885,-7.445902 c 1.865231,-0.981695 1.863475,-2.653233 -0.0018,-3.634927 L 27.454082,15.736996 C 26.521465,15.246147 25.261142,15.000201 24.000881,15 Z"/>
 <path style="fill:#aed351" d="m 24.000881,14 c -1.26026,-2.01e-4 -2.520584,0.246147 -3.453201,0.736996 L 6.398061,22.182899 c -1.8652367,0.981697 -1.863504,2.653229 0.00173,3.634927 l 14.147882,7.445902 c 1.865235,0.981696 5.041171,0.981695 6.906403,0 l 14.147885,-7.445902 c 1.865231,-0.981695 1.863475,-2.653233 -0.0018,-3.634927 L 27.454082,14.736996 C 26.521465,14.246147 25.261142,14.000201 24.000881,14 Z"/>
 <path style="opacity:0.2;fill:#ffffff" d="M 24 14 C 22.73974 13.999799 21.479492 14.245479 20.546875 14.736328 L 6.3984375 22.183594 C 5.2307989 22.798136 4.795091 23.68325 5.0898438 24.5 C 5.2656987 24.012602 5.701572 23.550363 6.3984375 23.183594 L 20.546875 15.736328 C 21.479492 15.245479 22.73974 14.999799 24 15 C 25.260261 15.000201 26.520508 15.245479 27.453125 15.736328 L 41.599609 23.183594 C 42.296489 23.550362 42.733685 24.012601 42.910156 24.5 C 43.203882 23.68325 42.767272 22.798134 41.599609 22.183594 L 27.453125 14.736328 C 26.520508 14.245479 25.260261 14.000201 24 14 z"/>
 <path style="opacity:0.2" d="m 24.000881,5.0000008 c -1.26026,-2.01e-4 -2.520584,0.246147 -3.453201,0.736996 L 6.398061,13.182899 c -1.8652367,0.981697 -1.863504,2.653229 0.00173,3.634927 l 14.147882,7.445902 c 1.865235,0.981696 5.041171,0.981695 6.906403,0 l 14.147885,-7.445902 c 1.865231,-0.981695 1.863475,-2.653233 -0.0018,-3.634927 L 27.454082,5.7369968 c -0.932617,-0.490849 -2.19294,-0.736795 -3.453201,-0.736996 z"/>
 <path style="fill:#3b9dda" d="m 24.000881,4.0000004 c -1.26026,-2.01e-4 -2.520584,0.246147 -3.453201,0.736996 L 6.398061,12.182899 c -1.8652367,0.981697 -1.863504,2.653229 0.00173,3.634927 l 14.147882,7.445902 c 1.865235,0.981696 5.041171,0.981695 6.906403,0 l 14.147885,-7.445902 c 1.865231,-0.981695 1.863475,-2.653233 -0.0018,-3.634927 L 27.454082,4.7369964 c -0.932617,-0.490849 -2.19294,-0.736795 -3.453201,-0.736996 z"/>
 <path style="opacity:0.2;fill:#ffffff" d="M 24 4 C 22.73974 3.999799 21.479492 4.2454791 20.546875 4.7363281 L 6.3984375 12.183594 C 5.2307989 12.798136 4.795091 13.68325 5.0898438 14.5 C 5.2656987 14.012602 5.701572 13.550363 6.3984375 13.183594 L 20.546875 5.7363281 C 21.479492 5.2454791 22.73974 4.999799 24 5 C 25.260261 5.000201 26.520508 5.2454791 27.453125 5.7363281 L 41.599609 13.183594 C 42.296489 13.550362 42.733685 14.012601 42.910156 14.5 C 43.203882 13.68325 42.767272 12.798134 41.599609 12.183594 L 27.453125 4.7363281 C 26.520508 4.2454791 25.260261 4.000201 24 4 z"/>
</svg>
